img/icons/human.svg

<svg width="57" height="62" viewBox="0 0 57 62" fill="none" xmlns="http://www.w3.org/2000/svg">
<path d="M17.62 40.5546C18.725 36.3934 22.4911 32.1311 28.5 32.1311C34.5089 32.1311 38.275 36.3934 39.38 40.5546M17.62 49.1256H39.38M3 10.6721L10.225 3M46.775 3L54 10.6721M6.74 6.7855H50.26V59H6.74V6.7855ZM33.94 21.1503C33.94 24.1826 31.5044 26.6407 28.5 26.6407C25.4956 26.6407 23.06 24.1826 23.06 21.1503C23.06 18.118 25.4956 15.6599 28.5 15.6599C31.5044 15.6599 33.94 18.118 33.94 21.1503Z" stroke="#347D98" stroke-width="5" stroke-miterlimit="10" stroke-linecap="round" stroke-linejoin="round"/>
</svg>

<svg width="57" height="62" fill="none" xmlns="http://www.w3.org/2000/svg"><path d="M17.62 40.555c1.105-4.162 4.871-8.424 10.88-8.424s9.775 4.262 10.88 8.424m-21.76 8.57h21.76M3 10.673 10.225 3m36.55 0L54 10.672M6.74 6.785h43.52V59H6.74V6.785Zm27.2 14.365c0 3.033-2.436 5.49-5.44 5.49-3.004 0-5.44-2.457-5.44-5.49 0-3.032 2.436-5.49 5.44-5.49 3.004 0 5.44 2.458 5.44 5.49Z" stroke="#347D98" stroke-width="5" stroke-miterlimit="10" stroke-linecap="round" stroke-linejoin="round"/></svg>
